X:1
T:159 - Minha Oração
T:Letra: James Theodore Houston (1847-1929)
T:Música: William Howard Doane (1832-1915)
M:4/4
L:1/8
Q:1/4=100
K:Bb
V:1
"Bb"B4A2G2| F3G F4| B4c2d2| "F"c6 z2 | "Bb"B4A2G2| F3G F4| "Eb"G4"Cm"c2"F7"A2| "Bb"B6 z2 | "Bb"d4 e2d2| "F"d3c c4| ("Gm"B2d2) c2B2| "D"B3A A4| ("Eb"G2B2) A2G2| "Bb"G3F F4| "F"F4 F2"F7"F2| "Bb"F6 z2|]
w: 1.~Di-ri-joa Ti, Je-sus, mi-nhao-ra-ção, A Ti que tu-do vês no co-ra-ção. Eu ve-nho Tea-do-rar, tu-a gra-ça su-pli-car; Oh,_ vem mea-ben-ço-ar; vem já, meu Deus!  
w: 2.~Di-ri-joa Ti, Je-sus, mi-nhao-ra-ção; Do mal que pra-ti-quei, a con-fis-são. Sê Tu, ó meu Se-nhor, pro_pí-cioao pe-ca-dor; Con_ce-de,em teu a-mor, ple-no per-dão!  
w: 3.~Di-ri-joa Ti, Je-sus, mi-nhao-ra-ção, A Ti queam-pa-ro és em a-fli-ção; Oh, vem me con-so-lar, mi_nhaal-ma con-for-tar, Pra_ nun-ca mea-fas-tar de Ti, Se-nhor!  
w: 4.~Es-cu-ta, meu Je-sus, es-tao-ra-ção, Quehu-mil-de fa-çoa Ti com gra-ti-dão. Tu és meu Me-dia-dor, Meu_ Rei e Sal-va-dor; Pos-sa eu em teu a-mor sem-pre vi-ver!          				                    
W: 
W: 
W: 1. Dirijo a Ti, Jesus, minha oração,
W: A Ti que tudo vês no coração.
W: Eu venho Te adorar, tua graça suplicar;
W: Oh, vem me abençoar; vem já, meu Deus!
W: 
W: 2. Dirijo a Ti, Jesus, minha oração;
W: Do mal que pratiquei, a confissão.
W: Sê Tu, ó meu Senhor, propício ao pecador;
W: Concede, em teu amor, pleno perdão!
W:
W:
W: 
W: 3. Dirijo a Ti, Jesus, minha oração,
W: A Ti que amparo és em aflição;
W: Oh, vem me consolar, minha alma confortar,
W: Pra nunca me afastar de Ti, Senhor!
W: 
W: 4. Escuta, meu Jesus, esta oração,
W: Que humilde faço a Ti com gratidão.
W: Tu és meu Mediador, meu Rei e Salvador;
W: Possa eu em teu amor sempre viver!
W:         
W: 





